assets/icons/utility/copy_to_clipboard.svg

<?xml version="1.0"?><svg xmlns="http://www.w3.org/2000/svg" width="52" height="52" viewBox="0 0 52 52"><g fill="#fff"><path d="m17.4 11.6h17.3c0.9 0 1.6-0.7 1.6-1.6v-3.2c0-2.6-2.1-4.8-4.7-4.8h-11c-2.6 0-4.7 2.2-4.7 4.8v3.2c-0.1 0.9 0.6 1.6 1.5 1.6z m25.9-5.6h-1.6c-0.5 0-0.8 0.3-0.8 0.8v3.2c0 3.5-2.8 6.4-6.3 6.4h-17.2c-3.5 0-6.3-2.9-6.3-6.4v-3.2c0-0.5-0.3-0.8-0.8-0.8h-1.6c-2.6 0-4.7 2.2-4.7 4.8v34.4c0 2.6 2.1 4.8 4.7 4.8h34.6c2.6 0 4.7-2.2 4.7-4.8v-34.4c0-2.6-2.1-4.8-4.7-4.8z"></path></g></svg>

<svg xmlns="http://www.w3.org/2000/svg" x="0px" y="0px"
	 width="52px" height="52px" viewBox="0 0 52 52" enable-background="new 0 0 52 52" xml:space="preserve">
<g>
	<path fill="#FFFFFF" d="M17.4,11.6h17.3c0.9,0,1.6-0.7,1.6-1.6V6.8c0-2.6-2.1-4.8-4.7-4.8h-11c-2.6,0-4.7,2.2-4.7,4.8V10
		C15.8,10.9,16.5,11.6,17.4,11.6z"/>
	<path fill="#FFFFFF" d="M43.3,6h-1.6c-0.5,0-0.8,0.3-0.8,0.8V10c0,3.5-2.8,6.4-6.3,6.4H17.4c-3.5,0-6.3-2.9-6.3-6.4V6.8
		c0-0.5-0.3-0.8-0.8-0.8H8.7C6.1,6,4,8.2,4,10.8v34.4C4,47.8,6.1,50,8.7,50h34.6c2.6,0,4.7-2.2,4.7-4.8V10.8C48,8.2,45.9,6,43.3,6z"
		/>
</g>
</svg>
